X: 5
T: The High
R: reel
M: 4/4
L: 1/8
K: Amix
|:a2 fa ec A2|cded cAA2|a2 fa ec A2|Bcdc BG G2|
a2 fa ec A2|cdef g2 fg|afge fdec|Bcdc BG G2:|
|:cAeA fAeA|cAaf ec BA|cAeA fAeA|Bcdc BG G2|
cAeA fAeA|cdef g2 fg|afge fdec|Bcdc BG G2:|


Tune 44	Setting 12467

